X: 9
T: Shandon Bells (J-25)
I: Shandon Bells	J-25	D	jig
M: 6/8
R: jig
K: D
B| "D"AFD DFA| ded cBA| "Em"BGE EFA| "A7"B2 A Bcd|
   "D"AFD DFA| ded cBA| "G"Bcd "A7"ecA|1 "D"d3 dc :|2 "D"d3 d2|]
|:g| "D"f2 (d d)ed| faa afd| "A"cAA eAA| "A7"cBc efg|
   "D"f2 (d d)ed| faa afd| "G"Bcd "A7"ecA| "D"d3 d2:|

